_assets/images/icon-spotify.svg

<svg fill="none" height="24" viewBox="0 0 24 24" width="24" xmlns="http://www.w3.org/2000/svg"><path clip-rule="evenodd" d="m19.0799 10.6389c-3.8563-2.29013-10.21713-2.5007-13.89841-1.38341-.59129.17943-1.21643-.15429-1.39557-.74543-.17915-.59157.15428-1.21628.74585-1.396 4.22586-1.28271 11.25083-1.035 15.69033 1.60029.5317.31571.7061 1.00242.391 1.53325-.3155.5317-1.0028.707-1.5332.3913zm-.1263 3.392c-.2705.439-.8445.5767-1.283.3072-3.215-1.9762-8.1174-2.5488-11.92097-1.3942-.49329.149-1.01414-.129-1.164-.6214-.14857-.4932.12957-1.0132.622-1.1632 4.345-1.31853 9.74657-.68 13.43917 1.5893.4384.27.5764.8443.3068 1.2823zm-1.4638 3.2576c-.215.3526-.674.463-1.0253.2481-2.8093-1.717-6.3453-2.1047-10.50958-1.1535-.40129.092-.80129-.1595-.89286-.5608-.09186-.4011.15871-.8011.56086-.8927 4.55718-1.0417 8.46618-.5934 11.61938 1.3335.3516.2147.4623.674.2475 1.0254zm-5.4866-17.2552969c-6.607 0-11.963283 5.3561469-11.963283 11.9630969 0 6.6078 5.356283 11.9635 11.963283 11.9635 6.6073 0 11.9633-5.3557 11.9633-11.9635 0-6.60695-5.356-11.9630969-11.9633-11.9630969z" fill="#fff" fill-rule="evenodd"/></svg>

<svg width="24" height="24" viewBox="0 0 24 24" fill="none" xmlns="http://www.w3.org/2000/svg">
<path fill-rule="evenodd" clip-rule="evenodd" d="M19.0799 10.6389C15.2236 8.34877 8.86277 8.1382 5.18149 9.25549C4.5902 9.43492 3.96506 9.1012 3.78592 8.51006C3.60677 7.91849 3.9402 7.29378 4.53177 7.11406C8.75763 5.83135 15.7826 6.07906 20.2221 8.71435C20.7538 9.03006 20.9282 9.71677 20.6131 10.2476C20.2976 10.7793 19.6103 10.9546 19.0799 10.6389ZM18.9536 14.0309C18.6831 14.4699 18.1091 14.6076 17.6706 14.3381C14.4556 12.3619 9.5532 11.7893 5.74963 12.9439C5.25634 13.0929 4.73549 12.8149 4.58563 12.3225C4.43706 11.8293 4.7152 11.3093 5.20763 11.1593C9.55263 9.84077 14.9542 10.4793 18.6468 12.7486C19.0852 13.0186 19.2232 13.5929 18.9536 14.0309ZM17.4898 17.2885C17.2748 17.6411 16.8158 17.7515 16.4645 17.5366C13.6552 15.8196 10.1192 15.4319 5.95492 16.3831C5.55363 16.4751 5.15363 16.2236 5.06206 15.8223C4.9702 15.4212 5.22077 15.0212 5.62292 14.9296C10.1801 13.8879 14.0891 14.3362 17.2423 16.2631C17.5939 16.4778 17.7046 16.9371 17.4898 17.2885ZM12.0032 0.0332031C5.3962 0.0332031 0.039917 5.38935 0.039917 11.9963C0.039917 18.6041 5.3962 23.9598 12.0032 23.9598C18.6105 23.9598 23.9665 18.6041 23.9665 11.9963C23.9665 5.38935 18.6105 0.0332031 12.0032 0.0332031Z" fill="white"/>
</svg>
